!!!COM:	Josquin des Prez
!!!CDT:	~1450-1521/08/27
!!!OPR:	Missa Malheur me bat
!!!ONM:	4
!!!OTL:	Sanctus
!!!AGN:	Mass; Sanctus
!!!SCT:	NJE 9.1
!!!SCA:	New Josquin Edition 9.1
!!!voices: 4
!!!voices-OPR: 4(-6)
**kern	**kern	**kern	**kern
*staff4	*staff3	*staff2	*staff1
*Ivox	*Ivox	*Ivox	*Ivox
*I"Bassus	*I"Tenor	*I"Altus	*I"Superius
*I'B	*I'T	*I'A	*I'S
*>[A,B,C,D,E,F,C]	*>[A,B,C,D,E,F,C]	*>[A,B,C,D,E,F,C]	*>[A,B,C,D,E,F,C]
*>Sanctus[A]	*>Sanctus[A]	*>Sanctus[A]	*>Sanctus[A]
*>Pleni[B]	*>Pleni[B]	*>Pleni[B]	*>Pleni[B]
*>Osanna[C]	*>Osanna[C]	*>Osanna[C]	*>Osanna[C]
*>Benedictus[D]	*>Benedictus[D]	*>Benedictus[D]	*>Benedictus[D]
*>Qui_venit[E]	*>Qui_venit[E]	*>Qui_venit[E]	*>Qui_venit[E]
*>In_nomine[F]	*>In_nomine[F]	*>In_nomine[F]	*>In_nomine[F]
*>A	*>A	*>A	*>A
*clefF4	*clefGv2	*clefGv2	*clefG2
*k[]	*k[]	*k[]	*k[]
*M2/1	*M2/1	*M2/1	*M2/1
*met(C)	*met(C)	*met(C)	*met(C)
!!!OMD: Sanctus
!!section: Sanctus
=1-	=1-	=1-	=1-
!	!	!LO:TX:Z=8:t=A by Malcort	!
0r	0E	0e	0r
=2	=2	=2	=2
0r	1B	1.d	0r
.	1B	.	.
.	.	4c\	.
.	.	4B\	.
=3	=3	=3	=3
0r	1c	1A	0e
.	1c	1A	.
=4	=4	=4	=4
0r	1B	2G/	1b
.	.	2.d\	.
.	1G	.	1b
.	.	4B\	.
.	.	[2e\	.
=5	=5	=5	=5
0r	1A	4e\]	1cc
.	.	4d\	.
.	.	4c\	.
.	.	4B\	.
.	1A	1c	1cc
=6	=6	=6	=6
0r	1.G	1d	1b
.	.	1B	1g
.	2E/	.	.
=7	=7	=7	=7
0r	1F	2A/	1a
.	.	1c	.
.	1F	.	1a
.	.	2d\	.
=8	=8	=8	=8
0r	2.E/	2.e\	2.g/
.	4F/	4d\	4a/
.	2G/	2B\	2b\
.	[2A/	[2c\	[2e/
=9	=9	=9	=9
0r	2A/]	4c\]	4e/]
.	.	4d\	4f/
.	2E/	2e\	2g/
.	2F/	2A/	2a/
.	2G/	2B\	2e/
=10	=10	=10	=10
0r	2A/	2c\	2f/
.	2E/	1B	1e
.	1F	.	.
.	.	2A/	2d/
=11	=11	=11	=11
2.E\	2r	1B	1e
.	2.E/	.	.
4F\	.	.	.
2G\	.	2r	1r
.	4F/	.	.
[2E\	2G/	[2e\	.
=12	=12	=12	=12
4E\]	2.E/	4e\]	0g
4F\	.	4d\	.
2G\	.	2B\	.
.	4F/	.	.
1C	2G/	1c	.
.	2C/	.	.
=13	=13	=13	=13
0r	1c	1A	2c/
.	.	.	2cc\
.	2d\	2G/	2b\
.	[2e\	[2E/	[2g/
=14	=14	=14	=14
0r	4e\]	2E/]	2g/]
.	4d\	.	.
.	1c	2F/	4f/
.	.	.	4e/
.	.	1G	1d
.	2B\	.	.
=15	=15	=15	=15
2.E\	2c\	1C	0g
.	2e\	.	.
4F\	.	.	.
2G\	2d\	1r	.
[2E\	[2e\	.	.
=16	=16	=16	=16
4E\]	1.e]	1C	1g
4F\	.	.	.
2G\	.	.	.
1C	.	2.G/	[1g
.	2e\	.	.
.	.	4A/	.
=17	=17	=17	=17
0r	2d\	2B\	1g]
.	2e\	2E/	.
.	2c\	2r	1g
.	[2e\	2E/	.
=18	=18	=18	=18
2.E\	2e\]	2.G/	0g
.	2e\	.	.
4F\	.	4A/	.
2G\	2d\	4B\	.
.	.	4A/	.
[2E\	[2e\	4G/	.
.	.	4F/	.
=19	=19	=19	=19
4E\]	2e\]	2.E/	1g
4F\	.	.	.
2G\	2.e\	.	.
.	.	4F/	.
1C	.	2G/	2r
.	4d\	.	.
.	4c\	[2A/	[2cc\
.	4B\	.	.
=20	=20	=20	=20
0r	2A/	2A/]	4cc\]
.	.	.	4b\
.	1e	2G/	2.b\
.	.	1A	.
.	.	.	4a/
.	2c\	.	[2a/
=21	=21	=21	=21
2r	1B	1E	4a/]
.	.	.	4g/
2E\	.	.	4g/
.	.	.	4f/
2F\	2A/	2c\	2a/
2G\	[2G/	2B\	2d/
=22	=22	=22	=22
1C	4G/]	2c\	2.e/
.	4A/	.	.
.	2c\	2A/	.
.	.	.	4f/
1r	2B\	1G	[1g
.	[2e\	.	.
=23	=23	=23	=23
0r	4e\]	2E/	2g/]
.	4d\	.	.
.	2.c\	2F/	1a
.	.	1D	.
.	8B/L	.	.
.	8A/J	.	.
.	4B\	.	2f/
.	4A/	.	.
=24	=24	=24	=24
2r	1c	2C/	2g/
2E\	.	1c	2e/
2F\	2r	.	1d
2G\	2d\	2B\	.
=25	=25	=25	=25
1C	2.e\	2c\	2r
.	.	2A/	2.e/
.	4f\	.	.
1r	2g\	1E	.
.	.	.	4f/
.	2G/	.	2g/
=26	=26	=26	=26
2r	2A/	2F/	2c/
2.C/	1c	2E/	2.e/
.	.	1G	.
4D\	.	.	4f/
2E\	2B\	.	2g/
=27	=27	=27	=27
1AA	2c\	2A/	2c/
.	1e	2E/	2.cc\
1r	.	1F	.
.	.	.	4b\
.	2d\	.	2a/
=28	=28	=28	=28
2r	2.e\	[0E	[0g
2.E\	.	.	.
.	4d\	.	.
.	2c\	.	.
4F\	.	.	.
2G\	2B\	.	.
=29	=29	=29	=29
2C/	2e\	0E_	1g]
2.G\	2E/	.	.
.	2.G/	.	1r
4A\	.	.	.
2B\	.	.	.
.	4A/	.	.
=30	=30	=30	=30
2.E\	2B\	0E]	2.g/
.	2c\	.	.
4F\	.	.	4a/
2G\	2B\	.	2b\
[2C/	[2c\	.	[2e/
=31	=31	=31	=31
4C/]	4c\]	1r	4e/]
4D\	4B\	.	4f/
2E\	2G/	.	2g/
1AA	2r	1E	2c/
.	[2A/	.	2cc\
=32	=32	=32	=32
0r	2A/]	1F	2a/
.	2A/	.	1cc
.	2.c\	1F	.
.	.	.	2a/
.	4d\	.	.
=33	=33	=33	=33
2r	1e	2.E/	2cc\
2.E\	.	.	2.b\
.	.	4F/	.
.	2.E/	2G/	.
4F\	.	.	4a/
2G\	.	[2C/	4g/
.	4F/	.	4f/
=34	=34	=34	=34
1C	2G/	4C/]	1e
.	.	4D/	.
.	2C/	4E/	.
.	.	4F/	.
2r	2.E/	2.G/	2r
[2E\	.	.	[2g/
.	4F/	4A/	.
=35	=35	=35	=35
4E\]	1G	1B	4g/]
4F\	.	.	4f/
2G\	.	.	2d/
2C/	2r	2c\	2e/
[2G\	2G/	[2B\	[2d/
=36	=36	=36	=36
2G\]	2B\	2B\]	2d/]
4F\	2c\	4A/	2.f/
4E\	.	4G/	.
1D	1d	1A	.
.	.	.	4e/
.	.	.	4d/
.	.	.	4c/
=37	=37	=37	=37
0GG	1r	2G/	2B/
.	.	4F/	1c
.	.	4E/	.
.	1d	1D	.
.	.	.	2B/
=38	=38	=38	=38
2r	2.e\	1C	0c
2G\	.	.	.
.	4d\	.	.
2A\	4c\	1F	.
.	4A/	.	.
2F\	[2c\	.	.
=39	=39	=39	=39
2G\	4c\]	2E/	2r
.	4B\	.	.
2E\	2G/	2G/	2g/
1D	2d\	2F/	2a/
.	2D/	2A/	2f/
=40	=40	=40	=40
1GG	4E/	2G/	1g
.	4D/	.	.
.	2d\	1G	.
1AA	2c\	.	1cc
.	2A/	2F/	.
=41	=41	=41	=41
2GG/	2.B\	2G/	2b\
1G	.	2E/	2g/
.	4c\	.	.
.	[1d	1D	2b\
2F\	.	.	[2a/
=42	=42	=42	=42
1G	1d]	1r	4a/]
.	.	.	4g/
.	.	.	1g
1A	2r	1D	.
.	2d\	.	2f#i/
=43	=43	=43	=43
1G	2B\	2.E/	2.g/
.	2G/	.	.
.	.	4F/	4f/
1r	2B\	2G/	2d/
.	2c\	2E/	[2e/
=44	=44	=44	=44
0r	2.A/	1F	2e/]
.	.	.	2d/
.	4B\	.	.
.	2c\	2.E/	2e/
.	4G/	.	[2g/
.	4A/	4F/	.
=45	=45	=45	=45
0r	4B\	2G/	2g/]
.	4c\	.	.
.	2d\	2.D/	2f/
.	2.A/	.	2.a/
.	.	4E/	.
.	.	4F/	.
.	4B\	4G/	4g/
=46	=46	=46	=46
0r	4c\	2.A/	2e/
.	4d\	.	.
.	4e\	.	2cc\
.	4f\	4G/	.
.	2g\	2E/	2b\
.	[2f\	2D/	[2dd\
=47	=47	=47	=47
1r	4f\]	2F/	4dd\]
.	4e\	.	4cc\
.	2c\	2A/	1cc
2r	1d	1G	.
2GG/	.	.	2b\
=48	=48	=48	=48
2.AA/	[0c	2.C/	2cc\
.	.	.	2a/
4BB/	.	4D/	.
2C/	.	2E/	4g/
.	.	.	4e/
2FF/	.	2F/	2a/
=49	=49	=49	=49
0C	1c]	2G/	2g/
.	.	2.A/	2.cc\
.	2r	.	.
.	.	4B\	4b\
.	[2e\	2c\	4g/
.	.	.	4a/
=50	=50	=50	=50
2r	2e\]	2G/	2b\
2G\	2d\	2B\	2dd\
2.A\	2f\	2A/	2cc\
.	[2e\	[2c\	[2ee\
4B\	.	.	.
=51	=51	=51	=51
1c	2e\]	4c\]	2ee\]
.	.	4B\	.
.	2a\	2A/	2cc\
2r	4g\	2c\	2ee\
.	4e\	.	.
[2G\	[2g\	[2B\	[2dd\
=52	=52	=52	=52
2G\]	4g\]	2B\]	2dd\]
.	4f\	.	.
2A\	2e\	2c\	2.cc\
2B\	1d	1G	.
.	.	.	8b/L
.	.	.	8a/J
[2G\	.	.	2b\
=53	=53	=53	=53
2G\]	0r	2E/	2e/
1A	.	2F/	2c/
.	.	1D	2d/
2B\	.	.	2f/
=54	=54	=54	=54
2c\	0r	2C/	4e/
.	.	.	4d/
2.A\	.	1F	2.f/
4G\	.	.	4e/
2E\	.	2G/	[2e/
=55	=55	=55	=55
1F	2r	1A	2e/]
.	2a\	.	2d/
2E\	2g\	2B\	1e
[2c\	2a\	2A/	.
=56	=56	=56	=56
4c\]	2e\	1c	2r
4B\	.	.	.
4A\	1a	.	2e/
4G\	.	.	.
2F\	.	2d\	2f/
2E\	[2g\	[2e\	2g/
=57	=57	=57	=57
1A	4g\]	2e\]	1c
.	4e\	.	.
.	2f\	4d\	.
.	.	4c\	.
2G\	2g\	2B\	2d/
[2A\	2e\	[2c\	2c/
=58	=58	=58	=58
4A\]	2r	4c\]	2cc\
4G\	.	4B\	.
2E\	2.e\	2G/	2b\
1F	.	1A	1a
.	4c\	.	.
.	2d\	.	.
=59	=59	=59	=59
0El	0el	0Bl	0gl
!!LO:LB:i:g=z
=60||	=60||	=60||	=60||
*>B	*>B	*>B	*>B
*clefF4	*clefGv2	*clefGv2	*clefG2
*k[]	*k[]	*k[]	*k[]
*M2/1	*M2/1	*M2/1	*M2/1
*met(C|)	*met(C|)	*met(C|)	*met(C|)
!!section: Pleni sunt celi
!!!OMD: Pleni sunt celi
0r	0r	0e	0g
=61	=61	=61	=61
0r	0r	1.d	1a
.	.	.	1b
.	.	4c\	.
.	.	4B\	.
=62	=62	=62	=62
0r	0r	1A	1.cc
.	.	1A	.
.	.	.	4b\
.	.	.	4a/
=63	=63	=63	=63
0r	0r	2G/	0b
.	.	2.d\	.
.	.	4B\	.
.	.	[2e\	.
=64	=64	=64	=64
0r	0r	4e\]	1r
.	.	4d\	.
.	.	4c\	.
.	.	4B\	.
.	.	1c	1e
=65	=65	=65	=65
0r	0r	1d	1f
.	.	1B	1g
=66	=66	=66	=66
0r	0r	2A/	1.a
.	.	1c	.
.	.	2d\	4g/
.	.	.	4f/
=67	=67	=67	=67
0r	0r	2.e\	0g
.	.	4d\	.
.	.	2B\	.
.	.	[2c\	.
=68	=68	=68	=68
0r	0r	4c\]	1.cc
.	.	4d\	.
.	.	2e\	.
.	.	2A/	.
.	.	2B\	2b\
=69	=69	=69	=69
0r	0r	2c\	1a
.	.	1B	.
.	.	.	2g/
.	.	2A/	[2a/
=70	=70	=70	=70
0r	0r	1B	2a/]
.	.	.	2g/
.	.	2r	2a/
.	.	[2e\	2cc\
=71	=71	=71	=71
0r	0r	4e\]	1b
.	.	4d\	.
.	.	2B\	.
.	.	1c	2r
.	.	.	[2e/
=72	=72	=72	=72
0r	0r	1A	2e/]
.	.	.	2f/
.	.	2G/	1g
.	.	[2E/	.
=73	=73	=73	=73
0r	0r	2E/]	1c
.	.	2F/	.
.	.	1G	1r
=74	=74	=74	=74
0r	0r	1C	1g
.	.	1r	2e/
.	.	.	[2g/
=75	=75	=75	=75
0r	0r	1C	2g/]
.	.	.	4f/
.	.	.	4e/
.	.	2.G/	2d/
.	.	.	2e/
.	.	4A/	.
=76	=76	=76	=76
0r	0r	2B\	2d/
.	.	2E/	2g/
.	.	2r	2e/
.	.	2E/	[2g/
=77	=77	=77	=77
0r	0r	2.G/	2g/]
.	.	.	4f/
.	.	4A/	4e/
.	.	4B\	2d/
.	.	4A/	.
.	.	4G/	[2e/
.	.	4F/	.
=78	=78	=78	=78
0r	0r	2.E/	2e/]
.	.	.	4d/
.	.	4F/	4c/
.	.	2G/	2B/
.	.	[2A/	2A/
=79	=79	=79	=79
0r	0r	2A/]	1B
.	.	2G#i/	.
.	.	1A	2A/
.	.	.	[2c/
=80	=80	=80	=80
0r	0r	1E	4c/]
.	.	.	4B/
.	.	.	1e
.	.	2c\	.
.	.	2B\	2d/
=81	=81	=81	=81
0r	0r	2c\	2e/
.	.	2A/	2c/
.	.	1G	2e/
.	.	.	[2d/
=82	=82	=82	=82
0r	0r	2E/	2d/]
.	.	2F/	2c/
.	.	1D	2d/
.	.	.	[2f/
=83	=83	=83	=83
0r	0r	2C/	2f/]
.	.	1c	2.e/
.	.	.	4c/
.	.	2B\	2d/
=84	=84	=84	=84
0r	0r	2c\	2.e/
.	.	2A/	.
.	.	.	4f/
.	.	1E	2g/
.	.	.	[2c/
=85	=85	=85	=85
0r	0r	2F/	2c/]
.	.	2E/	2.g/
.	.	1G	.
.	.	.	4f/
.	.	.	4e/
.	.	.	4d/
=86	=86	=86	=86
0r	0r	2A/	2f/
.	.	2E/	1e
.	.	1F	.
.	.	.	2d/
=87	=87	=87	=87
0r	0r	[0E	0e
=88	=88	=88	=88
0r	0r	0E_	1r
.	.	.	1e
=89	=89	=89	=89
0r	0r	0E]	1g
.	.	.	2f/
.	.	.	[2e/
=90	=90	=90	=90
0r	0r	1r	2e/]
.	.	.	4d/
.	.	.	4c/
.	.	1E	2B/
.	.	.	[2e/
=91	=91	=91	=91
0r	0r	1F	2e/]
.	.	.	2d/
.	.	1F	1a
=92	=92	=92	=92
0r	0r	2.E/	1g
.	.	4F/	.
.	.	2G/	2r
.	.	[2C/	2g/
=93	=93	=93	=93
0r	0r	4C/]	2e/
.	.	4D/	.
.	.	4E/	1g
.	.	4F/	.
.	.	2.G/	.
.	.	.	4f/
.	.	4A/	4e/
=94	=94	=94	=94
0r	0r	1B	2d/
.	.	.	2G/
.	.	2c\	2A/
.	.	[2B\	2G/
=95	=95	=95	=95
0r	0r	2B\]	1g
.	.	4A/	.
.	.	4G/	.
.	.	1A	2f/
.	.	.	[2e/
=96	=96	=96	=96
0r	0r	2G/	2e/]
.	.	4F/	4d/
.	.	4E/	4c/
.	.	1D	4B/
.	.	.	4c/
.	.	.	4d/
.	.	.	4B/
=97	=97	=97	=97
*	*	*	*M2/1
*	*	*	*met(O/3)
0r	0r	1C	3%4c
.	.	1F	.
.	.	.	3%2d
=98	=98	=98	=98
0r	0r	2E/	3%2e
.	.	2G/	.
.	.	.	3%2d
.	.	2F/	.
.	.	.	3%2f
.	.	2A/	.
=99	=99	=99	=99
0r	0r	2G/	3%2e
.	.	1G	.
.	.	.	3%2d
.	.	.	3%2f
.	.	2F/	.
=100	=100	=100	=100
0r	0r	2G/	3.e/
.	.	2E/	6B/
.	.	.	3c/
.	.	1D	3.d/
.	.	.	6A/
.	.	.	3B/
=101	=101	=101	=101
*	*	*	*M2/1
*	*	*	*met(C|)
0r	0r	1r	2c/
.	.	.	2G/
.	.	1D	2A/
.	.	.	[2B/
=102	=102	=102	=102
0r	0r	2.E/	2B/]
.	.	.	2c/
.	.	4F/	.
.	.	2G/	2B/
.	.	2E/	[2c/
=103	=103	=103	=103
0r	0r	1F	2c/]
.	.	.	4B/
.	.	.	4A/
.	.	2.E/	2c/
.	.	.	[2B/
.	.	4F/	.
=104	=104	=104	=104
0r	0r	2G/	4B/]
.	.	.	4c/
.	.	2.D/	2d/
.	.	.	2.A/
.	.	4E/	.
.	.	4F/	.
.	.	4G/	4B/
=105	=105	=105	=105
0r	0r	2.A/	4c/
.	.	.	4d/
.	.	.	4e/
.	.	4G/	4f/
.	.	2E/	2g/
.	.	2D/	2a/
=106	=106	=106	=106
0r	0r	2F/	4A/
.	.	.	4B/
.	.	2A/	4c/
.	.	.	4d/
.	.	1G	4e/
.	.	.	4f/
.	.	.	[2g/
=107	=107	=107	=107
0r	0r	2.C/	2g/]
.	.	.	1c
.	.	4D/	.
.	.	2E/	.
.	.	2F/	4B/
.	.	.	4A/
=108	=108	=108	=108
0r	0r	2G/	2B/
.	.	2.A/	4A/
.	.	.	4B/
.	.	.	4c/
.	.	4B\	4d/
.	.	2c\	4e/
.	.	.	4f/
=109	=109	=109	=109
0r	0r	2G/	2g/
.	.	2B\	4d/
.	.	.	4e/
.	.	2A/	4f/
.	.	.	4g/
.	.	[2c\	2a/
=110	=110	=110	=110
0r	0r	4c\]	4A/
.	.	4B\	4B/
.	.	2A/	4c/
.	.	.	4d/
.	.	2c\	4e/
.	.	.	4f/
.	.	[2B\	[2g/
=111	=111	=111	=111
0r	0r	2B\]	4g/]
.	.	.	4f/
.	.	2c\	4e/
.	.	.	4d/
.	.	1G	4e/
.	.	.	4d/
.	.	.	[2e/
=112	=112	=112	=112
0r	0r	2E/	4e/]
.	.	.	4d/
.	.	2F/	1c
.	.	1D	.
.	.	.	2B/
=113	=113	=113	=113
0r	0r	2C/	1c
.	.	1F	.
.	.	.	2d/
.	.	2G/	[2e/
=114	=114	=114	=114
0r	0r	1A	2e/]
.	.	.	2f/
.	.	2B\	2g/
.	.	2A/	[2a/
=115	=115	=115	=115
0r	0r	1c	4a/]
.	.	.	4g/
.	.	.	2e/
.	.	2d\	2f/
.	.	[2e\	2g/
=116	=116	=116	=116
0r	0r	2e\]	2c/
.	.	4d\	2.g/
.	.	4c\	.
.	.	2B\	.
.	.	.	4f/
.	.	[2c\	4e/
.	.	.	4d/
=117	=117	=117	=117
0r	0r	4c\]	4e/
.	.	4B\	4d/
.	.	2G/	1g
.	.	1A	.
.	.	.	4f/
.	.	.	4e/
=118	=118	=118	=118
0r	0r	[0Bl	1d
.	.	.	1G
=119	=119	=119	=119
0r	0r	0B]	0dl
!!LO:LB:i:g=z
=120||	=120||	=120||	=120||
*>C	*>C	*>C	*>C
*clefF4	*clefGv2	*clefGv2	*clefG2
*k[]	*k[]	*k[]	*k[]
*M2/1	*M2/1	*M2/1	*M2/1
*met(C|)	*met(C|)	*met(C|)	*met(C|)
!!!OMD: Osanna
!!section: Osanna
2.E\	2.G/	0e	1g
4F\	4A/	.	.
2G\	2B\	.	2g/
2C/	2c\	.	[2g/
=121	=121	=121	=121
2.G\	2G/	1.d	4g/]
.	.	.	4f/
.	2B\	.	4d/
4F\	.	.	4e/
2D\	2.A/	.	4f/
.	.	.	4g/
[2F\	.	4c\	[2a/
.	4B\	4B\	.
=122	=122	=122	=122
4F\]	2c\	1A	4a/]
4E\	.	.	4g/
2C/	2e\	.	1g
1D	1d	1A	.
.	.	.	2f#i/
=123	=123	=123	=123
*M3/1	*M3/1	*M3/1	*M3/1
*met(C3)	*met(C3)	*met(C3)	*met(C3)
1GG	1B	2G/	1g
.	.	2.d\	.
2GG/	2B\	.	2r
.	.	4B\	.
2.C/	2.c\	2.e\	1g
4D\	4B\	4d\	.
2E\	2G/	4c\	2g/
.	.	4B\	.
=124	=124	=124	=124
2AA/	1A	1c	2e/
2.F\	.	.	2a/
.	2D/	1d	2f/
4D\	.	.	.
2D\	2f\	.	1a
1E	1e	1B	.
.	.	.	2g/
=125	=125	=125	=125
2AA/	1c	2A/	2cc\
1A	.	1c	2a/
.	2A/	.	2cc\
2G\	1B	2d\	2b\
2.E\	.	2.e\	2.g/
.	2e\	.	.
4F\	.	4d\	4a/
=126	=126	=126	=126
2G\	2d\	2B\	2b\
2A\	2c\	2.c\	2e/
2F\	2A/	.	2a/
.	.	4d\	.
2E\	2B\	2e\	2g/
2A\	2c\	2A/	2cc\
2G\	2d\	2B\	2b\
=127	=127	=127	=127
2A\	2A/	2c\	1a
2.E\	2.e\	1B	.
.	.	.	2g/
4D\	4f\	.	.
2F\	2d\	2A/	2.a/
1E	1e	1B	.
.	.	.	4g#i/
.	.	.	4g#i/
.	.	.	4f#i/
=128	=128	=128	=128
*M2/1	*M2/1	*M2/1	*M2/1
*met(C|)	*met(C|)	*met(C|)	*met(C|)
1AA	1c	2r	1a
.	.	2.e\	.
1E	2B\	.	1b
.	.	4d\	.
.	2G/	2B\	.
=129	=129	=129	=129
2r	1A	1c	1e
2.AA/	.	.	.
.	1c	1A	2r
4BB/	.	.	.
4C/	.	.	2e/
4D\	.	.	.
=130	=130	=130	=130
1E	2B\	2G/	1g
.	2G/	1E	.
1AA	1c	.	1a
.	.	2F/	.
=131	=131	=131	=131
1E	2B\	1G	1b
.	2G/	.	.
2r	[1c	1C	1e
[2AA/	.	.	.
=132	=132	=132	=132
4AA/]	2c\]	1r	1cc
4BB/	.	.	.
4C/	4B\	.	.
4D\	4A/	.	.
2E\	2G/	1C	2r
2AA/	2A/	.	2cc\
=133	=133	=133	=133
[0E	2B\	2.G/	2b\
.	2E/	.	2.g/
.	.	4A/	.
.	2.G/	2B\	.
.	.	.	4a/
.	.	2E/	2b\
.	4A/	.	.
=134	=134	=134	=134
0E]	1B	2r	2e/
.	.	2E/	1g
.	2E/	2.G/	.
.	2G/	.	2e/
.	.	4A/	.
=135	=135	=135	=135
2r	2E/	4B\	2g/
.	.	4A/	.
2.E\	2.G/	4G/	2e/
.	.	4F/	.
.	.	2.E/	2.g/
4D\	4F/	.	.
2C/	2E/	.	.
.	.	4F/	4a/
=136	=136	=136	=136
2BB/	2D/	2G/	2b\
2AA/	1E	1A	2cc\
1BB	.	.	1dd
.	2D/	2G#i/	.
=137	=137	=137	=137
*M3/1	*M3/1	*M3/1	*M3/1
*met(C3)	*met(C3)	*met(C3)	*met(C3)
1AA	1E	1A	1cc
2r	2e\	1E	4b\
.	.	.	4a/
2.E\	1e	.	2.g/
.	.	2c\	.
4F\	.	.	4a/
2G\	2d\	2B\	2b\
=138	=138	=138	=138
2A\	2.c\	2c\	2e/
2F\	.	2A/	2a/
.	8B/L	.	.
.	8A/J	.	.
2G\	2B\	1G	2d/
2E\	2.c\	.	2e/
2C/	.	2E/	2g/
.	4B\	.	.
[2D\	4A/	2F/	2f/
.	4G/	.	.
=139	=139	=139	=139
2D\]	2F/	1D	2a/
2BB/	2.G/	.	2g/
2C/	.	2C/	2e/
.	4E/	.	.
2AA/	2F/	1c	2c/
1GG	1G	.	1d
.	.	2B\	.
=140	=140	=140	=140
0.r	2C/	2c\	2.c/
.	1c	2A/	.
.	.	.	4d/
.	.	1E	4e/
.	.	.	4f/
.	2B\	.	2g/
.	2A/	2F/	2c/
.	2c\	2E/	2e/
=141	=141	=141	=141
0.r	2.B\	1G	2d/
.	.	.	2.g/
.	4A/	.	.
.	2c\	2A/	.
.	.	.	4f/
.	1B	2E/	1e
.	.	1F	.
.	2A/	.	2d/
=142	=142	=142	=142
*M2/1	*M2/1	*M2/1	*M2/1
*met(C|)	*met(C|)	*met(C|)	*met(C|)
2r	1c	[0E	1e
2AA/	.	.	.
2GG/	2B\	.	1r
[2AA/	[2c\	.	.
=143	=143	=143	=143
4AA/]	4c\]	0E_	1c
4BB/	4B\	.	.
4C/	2A/	.	.
4D\	.	.	.
2E\	2G/	.	2B/
[2AA/	2A/	.	[2c/
=144	=144	=144	=144
4AA/]	1c	0E]	4c/]
4BB/	.	.	4B/
4C/	.	.	2A/
4D\	.	.	.
2E\	2B\	.	2G/
[2AA/	2A/	.	[2A/
=145	=145	=145	=145
2AA/]	2.c\	1r	4A/]
.	.	.	4B/
1A	.	.	4c/
.	4d\	.	4A/
.	4e\	1E	1B
.	4f\	.	.
2G#i\	2g\	.	.
=146	=146	=146	=146
1A	2f\	1F	1A
.	1e	.	.
1r	.	1F	1r
.	2d\	.	.
=147	=147	=147	=147
*M3/1	*M3/1	*M3/1	*M3/1
*met(C3)	*met(C3)	*met(C3)	*met(C3)
1AA	0.e	2.E/	1c
.	.	4F/	.
2GG/	.	2G/	2B/
2.AA/	.	2.C/	2A/
.	.	.	1c
4BB/	.	4D/	.
4C/	.	4E/	.
4D\	.	4F/	.
=148	=148	=148	=148
*M2/1	*M2/1	*M2/1	*M2/1
*met(C|)	*met(C|)	*met(C|)	*met(C|)
1E	2r	2.G/	2.B/
.	2E/	.	.
.	.	4A/	4c/
2D\	2F/	1B	2d/
2E\	2E/	.	2G/
=149	=149	=149	=149
2AA/	2r	2c\	2A/
2E\	2E/	1B	2G/
2D\	2F/	.	2d/
2E\	[2E/	4A/	2B/
.	.	4G/	.
=150	=150	=150	=150
2.AA/	2E/]	1A	2.c/
.	2.c\	.	.
4BB/	.	.	4d/
2C/	.	2G/	2e/
.	4B\	.	.
2D\	[2A/	4F/	[2f/
.	.	4E/	.
=151	=151	=151	=151
1BB	2A/]	1D	2f/]
.	2G#i/	.	4e/
.	.	.	4d/
1AA	1A	1C	2f/
.	.	.	2e/
=152	=152	=152	=152
*M3/1	*M3/1	*M3/1	*M3/1
*met(C3)	*met(C3)	*met(C3)	*met(C3)
0.r	1A	1F	2f/
.	.	.	2c/
.	2G/	2E/	2e/
.	2B\	2G/	2d/
.	2A/	2F/	2f/
.	2c\	2A/	2e/
=153	=153	=153	=153
0.r	2B\	2G/	2.g/
.	2G/	1G	.
.	.	.	4f/
.	2B\	.	4e/
.	.	.	4d/
.	2A/	2F/	1d
.	2B\	2G/	.
.	2G/	2E/	2c/
=154	=154	=154	=154
*M2/1	*M2/1	*M2/1	*M2/1
*met(C|)	*met(C|)	*met(C|)	*met(C|)
2r	2.A/	1D	2.f/
2D\	.	.	.
.	4B\	.	4d/
2C/	2c\	1r	2e/
2D\	2A/	.	2f/
=155	=155	=155	=155
2BB/	2B\	1D	2d/
2D\	2A/	.	2f/
2C/	1c	2.E/	2e/
2AA/	.	.	2c/
.	.	4F/	.
=156	=156	=156	=156
2GG/	2B\	2G/	2d/
2C/	2c\	2E/	1e
2D\	2A/	1F	.
2BB/	2B\	.	2d/
=157	=157	=157	=157
2C/	2G/	2.E/	2e/
2AA/	2A/	.	2c/
.	.	4F/	.
1GG	2.B\	2G/	2.d/
.	.	[2D/	.
.	4c\	.	4e/
=158	=158	=158	=158
0r	2d\	4D/]	4f/
.	.	4E/	4g/
.	2A/	4F/	2a/
.	.	4G/	.
.	2c\	2.A/	2e/
.	2A/	.	2a/
.	.	4G/	.
=159	=159	=159	=159
*M3/1	*M3/1	*M3/1	*M3/1
*met(C3)	*met(C3)	*met(C3)	*met(C3)
0.r	2B\	2E/	2g/
.	2.d\	2D/	2.f/
.	.	2F/	.
.	4c\	.	4e/
.	1c	2A/	2c/
.	.	1G	1d
.	2B\	.	.
=160	=160	=160	=160
*M2/1	*M2/1	*M2/1	*M2/1
*met(C|)	*met(C|)	*met(C|)	*met(C|)
2r	1.c	2.C/	4c/
.	.	.	4d/
1C	.	.	4e/
.	.	4D/	4f/
.	.	2E/	2g/
2D\	2A/	2F/	2f/
=161	=161	=161	=161
2GG/	2B-\	2G/	2d/
1D	2A/	2.A/	1f
.	2F/	.	.
.	.	4B\	.
2C/	[2G/	2c\	2e/
=162	=162	=162	=162
2E\	2G/]	2G/	2g/
2D\	2d\	2B\	2f/
2.F\	2c\	2A/	2.a/
.	2A/	[2c\	.
4E\	.	.	4g/
=163	=163	=163	=163
2C/	2.c\	4c\]	2e/
.	.	4B\	.
2F\	.	2A/	2a/
.	4d\	.	.
2E\	2e\	2c\	2.g/
[2G\	2d\	[2B\	.
.	.	.	4f/
=164	=164	=164	=164
2G\]	0g	2B\]	2d/
1C	.	2c\	1e
.	.	1G	.
2BB/	.	.	2d/
=165	=165	=165	=165
2C/	2G/	2E/	2e/
1c	2A/	2F/	2c/
.	1F	1D	2d/
2B\	.	.	2f/
=166	=166	=166	=166
2.c\	2G/	2C/	2e/
.	1A	1F	2c/
4B\	.	.	.
2A\	.	.	2.d/
2G\	2B\	2G/	.
.	.	.	4e/
=167	=167	=167	=167
2.F\	1c	1A	2f/
.	.	.	2c/
4E\	.	.	.
1D	1F	2B\	2d/
.	.	2A/	2f/
=168	=168	=168	=168
*M3/1	*M3/1	*M3/1	*M3/1
*met(C3)	*met(C3)	*met(C3)	*met(C3)
2C/	2G/	1c	2e/
1F	1A	.	1a
.	.	2d\	.
2E\	2B\	1e	2g/
1A	1c	.	2e/
.	.	4d\	2f/
.	.	4c\	.
=169	=169	=169	=169
2G\	2d\	2B\	1g
2E\	2e\	2.c\	.
2F\	2A/	.	2a/
.	.	4B\	.
2E\	2B\	2G/	2g/
2C/	2c\	1A	2e/
2D\	2A/	.	2f/
=170	=170	=170	=170
*M2/1	*M2/1	*M2/1	*M2/1
*met(C|)	*met(C|)	*met(C|)	*met(C|)
1GG	1G	[0Bl	2.g/
.	.	.	4f/
2.G\	2r	.	2d/
.	2E/	.	2e/
4A\	.	.	.
=171	=171	=171	=171
2B\	1G	0B_	2d/
2E\	.	.	1e
[1G	1G	.	.
.	.	.	2d/
=172	=172	=172	=172
2G\]	1E	0B_	2.g/
2E\	.	.	.
.	.	.	4f/
2.G\	2r	.	2d/
.	2E/	.	2e/
4A\	.	.	.
=173	=173	=173	=173
2B\	1G	0B_	2d/
2E\	.	.	1e
1G	1G	.	.
.	.	.	2d/
=174	=174	=174	=174
1.G	[0El	0B_	[0el
2E\	.	.	.
=175	=175	=175	=175
0El	0E]	0B]	0e]
!!LO:LB:i:g=z
!!LO:TX:rj:i:t=fine
=176||	=176||	=176||	=176||
*>D	*>D	*>D	*>D
*clefF4	*clefGv2	*clefGv2	*clefG2
*k[]	*k[]	*k[]	*k[]
*M2/1	*M2/1	*M2/1	*M2/1
*met(C|)	*met(C|)	*met(C|)	*met(C|)
!!!OMD: Benedictus
!!section: Benedictus
0r	1E	0e	0r
.	[1G	.	.
=177	=177	=177	=177
0r	2G/]	1.d	0r
.	2A/	.	.
.	1B	.	.
.	.	4c\	.
.	.	4B\	.
=178	=178	=178	=178
0r	1.c	1A	0r
.	.	1A	.
.	4B\	.	.
.	4A/	.	.
=179	=179	=179	=179
0r	1B	2G/	0r
.	.	2.d\	.
.	1G	.	.
.	.	4B\	.
.	.	[2e\	.
=180	=180	=180	=180
0r	2.A/	4e\]	0r
.	.	4d\	.
.	.	4c\	.
.	4G/	4B\	.
.	2E/	1c	.
.	[2F/	.	.
=181	=181	=181	=181
0r	4F/]	1d	0r
.	4D/	.	.
.	1G	.	.
.	.	1B	.
.	4F/	.	.
.	4E/	.	.
=182	=182	=182	=182
0r	2.F/	2A/	0r
.	.	1c	.
.	4E/	.	.
.	4F/	.	.
.	4E/	.	.
.	4F/	2d\	.
.	4G/	.	.
=183	=183	=183	=183
0r	4C/	2.e\	0r
.	4D/	.	.
.	4E/	.	.
.	4F/	4d\	.
.	2G/	2B\	.
.	[2A/	[2c\	.
=184	=184	=184	=184
0r	4A/]	4c\]	0r
.	4G/	4d\	.
.	2E/	2e\	.
.	2F/	2A/	.
.	2G/	2B\	.
=185	=185	=185	=185
0r	2C/	2c\	0r
.	1G	1B	.
.	2F#i/	2A/	.
=186	=186	=186	=186
0r	0Gl	0Bl	0r
!!LO:LB:i:g=z
=187||	=187||	=187||	=187||
*>E	*>E	*>E	*>E
*clefF4	*clefGv2	*clefGv2	*clefG2
*k[]	*k[]	*k[]	*k[]
*M2/1	*M2/1	*M2/1	*M2/1
*met(C|)	*met(C|)	*met(C|)	*met(C|)
!!!OMD: Qui venit
!!section: Qui venit
1D	0r	0d	0r
1G	.	.	.
=188	=188	=188	=188
1A	0r	1.c	0r
[1c	.	.	.
.	.	4B\	.
.	.	4A/	.
=189	=189	=189	=189
2c\]	0r	1G	0r
4B\	.	.	.
4A\	.	.	.
1B	.	1G	.
=190	=190	=190	=190
1A	0r	2F/	0r
.	.	2.c\	.
1F	.	.	.
.	.	4A/	.
.	.	[2d\	.
=191	=191	=191	=191
2.G\	0r	4d\]	0r
.	.	4c\	.
.	.	4B\	.
4F\	.	4A/	.
2D\	.	1B	.
2G\	.	.	.
=192	=192	=192	=192
2C/	0r	1c	0r
1c	.	.	.
.	.	1A	.
4B\	.	.	.
4A\	.	.	.
=193	=193	=193	=193
1B	0r	2G/	0r
.	.	1B	.
1E	.	.	.
.	.	2c\	.
=194	=194	=194	=194
2D\	0r	2.d\	0r
1F	.	.	.
.	.	4c\	.
.	.	2A/	.
2E\	.	[2B\	.
=195	=195	=195	=195
2.D\	0r	4B\]	0r
.	.	4c\	.
.	.	2d\	.
8E\L	.	.	.
8F\J	.	.	.
2E\	.	2G/	.
[2D\	.	2A/	.
=196	=196	=196	=196
4D\]	0r	2B\	0r
4C/	.	.	.
2AA/	.	1A	.
1BB	.	.	.
.	.	2G#i/	.
=197	=197	=197	=197
0AAl	0r	0Al	0r
!!LO:LB:i:g=z
=198||	=198||	=198||	=198||
*>F	*>F	*>F	*>F
*clefF4	*clefGv2	*clefGv2	*clefG2
*k[]	*k[]	*k[]	*k[]
*M2/1	*M2/1	*M2/1	*M2/1
*met(C|)	*met(C|)	*met(C|)	*met(C|)
!!!OMD: In nomine domine
!!section: In nomine domine
0r	1A	0r	0a
.	[1c	.	.
=199	=199	=199	=199
0r	2c\]	0r	1.g
.	2d\	.	.
.	1e	.	.
.	.	.	4f/
.	.	.	4e/
=200	=200	=200	=200
0r	1.f	0r	1d
.	.	.	1d
.	4e\	.	.
.	4d\	.	.
=201	=201	=201	=201
0r	1e	0r	2c/
.	.	.	2.g/
.	1c	.	.
.	.	.	4e/
.	.	.	[2a/
=202	=202	=202	=202
0r	1d	0r	4a/]
.	.	.	4g/
.	.	.	4f/
.	.	.	4e/
.	1d	.	1f
=203	=203	=203	=203
0r	1e	0r	1g
.	1c	.	1e
=204	=204	=204	=204
0r	2.d\	0r	2d/
.	.	.	1f
.	4c\	.	.
.	2A/	.	.
.	2B\	.	2g/
=205	=205	=205	=205
0r	2A/	0r	2.a/
.	2d\	.	.
.	.	.	4g/
.	2c\	.	2e/
.	2d\	.	[2f/
=206	=206	=206	=206
0r	2.A/	0r	4f/]
.	.	.	4g/
.	.	.	2a/
.	4c\	.	.
.	2B\	.	2d/
.	[2A/	.	2e/
=207	=207	=207	=207
0r	2A/]	0r	2f/
.	2G/	.	1e
.	1F	.	.
.	.	.	2d/
=208	=208	=208	=208
0r	0El	0r	0el
!!LO:TX:i:Y=40:rj:t=Osanna ut supra
=||	=||	=||	=||
*-	*-	*-	*-
!!!RDF**kern: l=long note in original notation
!!!RDF**kern: i=editorial accidental
!!!ENC:	Jesse Rodin; Victoria Chang 2011/05/08
!!!END:	2011/05/08/
!!!EED:	Jesse Rodin
!!!EEV: 2013/10/25/
!!attribution-level@Jos: 1 (secure)
!!!ONB:	Translated from MusicXML and edited on 2011/09/19/ by Craig Sapp
!!muse2ps: T^@{OPR}^u^@{ONM}{. }@{OTL}^C^@{COM}\n@{SCT}^i2I100v85,90,85,150c120Q16
